Collapse/img/gui_logo.svg

<svg width="35" height="24" viewBox="0 0 35 24" fill="none" xmlns="http://www.w3.org/2000/svg">
<path fill-rule="evenodd" clip-rule="evenodd" d="M25.6136 12.0814C2.95534 25.5013 -6.52366 28.0181 5.14434 16.5995C-4.56767 26.8839 3.50925 24.0114 24.832 10.6416L24.6336 11.1773L25.0544 11.2615L24.6336 11.7229L25.4325 11.5486L25.0783 12.1414L25.6109 12.0871L25.6136 12.0814Z" fill="#FCC135"/>
<path fill-rule="evenodd" clip-rule="evenodd" d="M24.7088 15.4481C25.1893 15.2019 25.5943 14.8138 25.8761 14.3292C26.158 13.8446 26.3051 13.2838 26.3 12.7127C27.8299 12.3499 29.5768 11.8214 31.1587 10.9986C29.694 13.7126 27.497 14.8853 24.7088 15.4481ZM21.6624 9.78873C22.1019 9.46485 22.6186 9.28254 23.1515 9.2633C23.6845 9.24407 24.2114 9.38871 24.6702 9.68018C25.7261 8.43604 27.0257 7.07906 28.481 6.02918C25.5597 6.02204 23.5118 7.47901 21.6624 9.78873ZM26.1469 11.9556C31.4596 10.7101 34.4107 8.49175 35.0001 5.3007C32.1293 4.2532 28.8631 5.88587 25.2015 10.1987L26.1469 11.9556Z" fill="url(#paint0_linear_125_1809)"/>
<path fill-rule="evenodd" clip-rule="evenodd" d="M6.83333 17.5693C8.41722 17.1058 9.90713 16.3309 11.2273 15.2839C10.7565 14.2125 10.5197 13.0401 10.5349 11.8557C10.5138 10.5308 10.8134 9.22265 11.4044 8.05904C11.9679 6.96365 12.809 6.06182 13.8304 5.45792C14.9147 4.82294 16.1344 4.5015 17.3696 4.52518C19.5 4.52518 21.2895 5.41983 22.7382 7.20914L25.9112 4.06666C24.8942 2.75806 23.6029 1.72625 22.143 1.05559C20.6482 0.351863 18.9749 0 17.1232 0C14.9262 0 12.9472 0.507082 11.186 1.52125C9.46971 2.4945 8.0358 3.95516 7.04105 5.7436C6.03443 7.54339 5.53067 9.57791 5.52979 11.8472C5.52979 13.9555 5.9643 15.86 6.83333 17.5608V17.5693Z" fill="#882BCF"/>
<path fill-rule="evenodd" clip-rule="evenodd" d="M6.83333 17.5693C8.41722 17.1058 9.90713 16.3309 11.2273 15.2839C10.7565 14.2125 10.5197 13.0401 10.5349 11.8557C10.5138 10.5308 10.8134 9.22265 11.4044 8.05904C11.9679 6.96365 12.809 6.06182 13.8304 5.45792C14.9147 4.82294 16.1344 4.5015 17.3696 4.52518C19.5 4.52518 21.2895 5.41983 22.7382 7.20914L25.9112 4.06666C24.8942 2.75806 23.6029 1.72625 22.143 1.05559C20.6482 0.351863 18.9749 0 17.1232 0C14.9262 0 12.9472 0.507082 11.186 1.52125C9.46971 2.4945 8.0358 3.95516 7.04105 5.7436C6.03443 7.54339 5.53067 9.57791 5.52979 11.8472C5.52979 13.9555 5.9643 15.86 6.83333 17.5608V17.5693Z" fill="url(#paint1_linear_125_1809)"/>
<path fill-rule="evenodd" clip-rule="evenodd" d="M14.2646 18.485C12.5017 19.4173 10.8923 20.2305 9.43652 20.9247C9.98162 21.3993 10.5674 21.8173 11.1861 22.1732C12.9446 23.1873 14.9121 23.6949 17.0887 23.6958C18.9395 23.6958 20.6176 23.3464 22.1231 22.6474C23.5945 21.9757 24.8924 20.9318 25.9059 19.6049L22.733 16.4624C21.2896 18.2717 19.5001 19.1764 17.3643 19.1764C16.2948 19.1924 15.235 18.9554 14.2606 18.4822L14.2646 18.485Z" fill="#6915BF"/>
<path fill-rule="evenodd" clip-rule="evenodd" d="M14.2646 18.485C12.5017 19.4173 10.8923 20.2305 9.43652 20.9247C9.98162 21.3993 10.5674 21.8173 11.1861 22.1732C12.9446 23.1873 14.9121 23.6949 17.0887 23.6958C18.9395 23.6958 20.6176 23.3464 22.1231 22.6474C23.5945 21.9757 24.8924 20.9318 25.9059 19.6049L22.733 16.4624C21.2896 18.2717 19.5001 19.1764 17.3643 19.1764C16.2948 19.1924 15.235 18.9554 14.2606 18.4822L14.2646 18.485Z" fill="url(#paint2_linear_125_1809)"/>
<defs>
<linearGradient id="paint0_linear_125_1809" x1="21.7139" y1="4.99365" x2="31.7012" y2="17.9842" gradientUnits="userSpaceOnUse">
<stop stop-color="#7C49F7"/>
<stop offset="1" stop-color="#BD5EEA"/>
</linearGradient>
<linearGradient id="paint1_linear_125_1809" x1="5.60862" y1="4.7523e-07" x2="22.7347" y2="20.2551" gradientUnits="userSpaceOnUse">
<stop stop-color="#7C49F7"/>
<stop offset="1" stop-color="#BD5EEA"/>
</linearGradient>
<linearGradient id="paint2_linear_125_1809" x1="10.798" y1="18.5807" x2="18.1398" y2="27.0215" gradientUnits="userSpaceOnUse">
<stop stop-color="#7C49F7"/>
<stop offset="1" stop-color="#BD5EEA"/>
</linearGradient>
</defs>
</svg>

<svg width="35" height="24" fill="none" xmlns="http://www.w3.org/2000/svg"><path fill-rule="evenodd" clip-rule="evenodd" d="M25.614 12.081C2.955 25.501-6.524 28.018 5.144 16.6c-9.712 10.285-1.635 7.412 19.688-5.957l-.198.535.42.085-.42.46.799-.173-.355.592.533-.054.003-.006z" fill="#FCC135"/><path fill-rule="evenodd" clip-rule="evenodd" d="M24.709 15.448c.48-.246.885-.634 1.167-1.119a3.164 3.164 0 00.424-1.616c1.53-.363 3.277-.892 4.859-1.714-1.465 2.714-3.662 3.886-6.45 4.45zm-3.047-5.66a2.67 2.67 0 011.49-.525 2.65 2.65 0 011.518.417c1.056-1.244 2.356-2.6 3.811-3.65-2.921-.008-4.97 1.449-6.819 3.759zm4.485 2.168C31.46 10.71 34.41 8.492 35 5.3c-2.87-1.048-6.137.585-9.799 4.898l.946 1.757z" fill="url(#paint0_linear_125_1809)"/><path fill-rule="evenodd" clip-rule="evenodd" d="M6.833 17.57a12.908 12.908 0 004.394-2.286 8.268 8.268 0 01-.692-3.428 8.112 8.112 0 01.87-3.797 6.418 6.418 0 012.425-2.601 6.738 6.738 0 013.54-.933c2.13 0 3.92.895 5.368 2.684l3.173-3.142a10.153 10.153 0 00-3.768-3.011C20.648.352 18.975 0 17.123 0c-2.197 0-4.176.507-5.937 1.521-1.716.974-3.15 2.434-4.145 4.223-1.007 1.8-1.51 3.834-1.511 6.103 0 2.109.434 4.013 1.303 5.714v.008z" fill="#882BCF"/><path fill-rule="evenodd" clip-rule="evenodd" d="M6.833 17.57a12.908 12.908 0 004.394-2.286 8.268 8.268 0 01-.692-3.428 8.112 8.112 0 01.87-3.797 6.418 6.418 0 012.425-2.601 6.738 6.738 0 013.54-.933c2.13 0 3.92.895 5.368 2.684l3.173-3.142a10.153 10.153 0 00-3.768-3.011C20.648.352 18.975 0 17.123 0c-2.197 0-4.176.507-5.937 1.521-1.716.974-3.15 2.434-4.145 4.223-1.007 1.8-1.51 3.834-1.511 6.103 0 2.109.434 4.013 1.303 5.714v.008z" fill="url(#paint1_linear_125_1809)"/><path fill-rule="evenodd" clip-rule="evenodd" d="M14.265 18.485a131.464 131.464 0 01-4.828 2.44c.545.474 1.13.892 1.75 1.248 1.758 1.014 3.725 1.522 5.902 1.523 1.85 0 3.529-.35 5.034-1.049a9.999 9.999 0 003.783-3.042l-3.173-3.143c-1.443 1.81-3.233 2.714-5.369 2.714a6.861 6.861 0 01-3.103-.694l.004.003z" fill="#6915BF"/><path fill-rule="evenodd" clip-rule="evenodd" d="M14.265 18.485a131.464 131.464 0 01-4.828 2.44c.545.474 1.13.892 1.75 1.248 1.758 1.014 3.725 1.522 5.902 1.523 1.85 0 3.529-.35 5.034-1.049a9.999 9.999 0 003.783-3.042l-3.173-3.143c-1.443 1.81-3.233 2.714-5.369 2.714a6.861 6.861 0 01-3.103-.694l.004.003z" fill="url(#paint2_linear_125_1809)"/><defs><linearGradient id="paint0_linear_125_1809" x1="21.714" y1="4.994" x2="31.701" y2="17.984" gradientUnits="userSpaceOnUse"><stop stop-color="#7C49F7"/><stop offset="1" stop-color="#BD5EEA"/></linearGradient><linearGradient id="paint1_linear_125_1809" x1="5.609" y1="0" x2="22.735" y2="20.255" gradientUnits="userSpaceOnUse"><stop stop-color="#7C49F7"/><stop offset="1" stop-color="#BD5EEA"/></linearGradient><linearGradient id="paint2_linear_125_1809" x1="10.798" y1="18.581" x2="18.14" y2="27.021" gradientUnits="userSpaceOnUse"><stop stop-color="#7C49F7"/><stop offset="1" stop-color="#BD5EEA"/></linearGradient></defs></svg>
